X:222
T:B222-  I tell thee, Dick
S:(1st/2)
Q:1/4=120
L:1/4
M:3/4
K:G
G/2 B/2G/2|d3/2e/2 f/2d/2|g3/2B/2 c/2d/2|\
e3/2d/2 c/2B/2|A/2d/2 ^c/2d/2 e/2c/2|\
d3/2||d/2 A/2B/2|c3/2B/2 A/2G/2|F3/2 F/2 G/2E/2|\
A3/2 G/2 F/E/|D/2d/2 c/2B/2 A3/4G/4|G3/2|]


